X: 3180
Q: "Reel."
M: C
L: 1/8
K: Bb
d |\
g |\
(fg/a/ b)g fdcB | ecdB cBGg |
(fg/a/ b)f gbfd | cBcd BB/B/ (Bg) |\
fg/a/ bg fdcB | ecdB cBGc |\


